X: 14
T: My Lily
T: Mo Shuil ad Dheigh
T: My Eyes at Your Back
C:Joan McDonald Boes
S:Aly Bain (from a TV programme)
N:Bars 5-11 actually played an octave higher
N:Found in Jerry Holland's Collection as "My Lily", and air to a Gaelic song.
F:http://www.bardstown.com/~mtipton/scottish/moshuil.html
F:http://www.bardstown.com/~mtipton/scottish/moshuil.mid
Z:Nigel Gatherer scots-l 2003-1-8 scots-l 2003-1-8
R:air
M:4/4
L:1/4
K:A
E \
| A2 A | A2 (3A/B/c/ | A>GF | E2 c/d/ | c2B/A/ | c2B/A/ | Bcd | e2 e/^e/|
f2 e/d/ | ce>c | d2F | E2 F/G/ | A2F | E/D/ C c/d/ | c2B | A2 ||
a/g/ \
| a2a/g/ a2 (3a/b/c/ | ag>f | e2d | e2d | c2 B/A/ | Bc>d | e3 |
f2 e/d/ | ce>c | d2F | [E2A2e2] f/g/ | a2 g/f/ | ec>d | c2B | A2 |]
%%sep 2 1 500
